X:1
T:Let all the just to God with joy
T:Let all the just to God with joy - Wilmington (William Marsh)
C:William Marsh
Z:p9, A Set of New
Z:Psalm & Hymn Tunes,
Z:London: (1816)
%%score [ 1 2 3 4 ]
L:1/8
M:2/2
K:Eb
V:1 treble nm="Air" snm="S."
V:2 treble nm="[Alto]" snm="A."
V:3 treble-8 transpose=-12 nm="Tenor" snm="T."
V:4 bass nm="[Bass]" snm="B."
V:1
 B4 B3 A | G4 B4 | (c2 de f2) d2 | e4 z2 g2 | (fgfe d2) f2 | (efed c2) e2 | d2 B2 (de)(fe) | %7
w: For faith- ful|is the|word _ _ _ of|God, His|works _ _ _ _ with|truth _ _ _ _ a-|bound, his works _ with _|
w: Let all the|just to|God _ _ _ with|joy Their|cheer- * * * * ful|voi- * * * * ces|raise, their cheer- * ful _|
w: Let harps, and|psal- te-|ries, _ _ _ and|lutes In|joy- * * * * ful|con- * * * * cert|meet, in joy- * ful _|
 d4 c4 | B8 | z8 | z8 | A4 A2 G2 | F4 B4 | B4 =A4 | B4 z2!p! B2 | (Bcde fe)(dc) | B4 A4 | %17
w: truth a-|bound;|||He jus- tice|loves, and|all the|earth Is|with _ _ _ _ _ his _|good- ness|
w: voi- ces|raise,|||For well the|right- eous|it be-|comes To|sing _ _ _ _ _ glad _|songs of|
w: con- cert|meet,|||And new- made|songs of|loud ap-|plause The|har- * * * * * mo- *|ny com-|
 G4 z2!f! B2 | (e3 d c3 B | cedf ec)(BA) | G4 F4 | E8 |] %22
w: crown’d, is|with _ _ _|_ _ _ _ _ _ his _|good- ness|crown’d.|
w: praise, to|sing _ _ _|_ _ _ _ _ _ glad _|songs of|praise.|
w: plete, the|har- * * *|* * * * * * mo- *|ny com-|plete.|
V:2
 G4 F3 F | E4 E4 | (E4 A2) F2 | G4 z4 | z8 | z4 z2 F2 | F6 G2 | F4 E4 | D8 | E4 E2 D2 | C4 E4 | %11
w: For faith- ful|is the|word _ of|God,||His|works with|truth a-|bound;|He jus- tice|loves, and|
w: Let all the|just to|God _ with|joy||Their|cheer- ful|voi- ces|raise,|For well the|right- eous,|
w: Let harps, and|psal- te-|ries, _ and|lutes||In|joy- ful|con- cert|meet,|And new- made|songs of|
 F4 E4 | D4 (F2 G2) | F4 F4 | F4 z2!p! G2 | (GABc dc)(BA) | G4 F4 | E4 z4 | z8 | %19
w: all the|earth, and _|all the|earth Is|with _ _ _ _ _ his _|good- ness|crown’d,||
w: well the|right- eous _|it be-|comes To|sing _ _ _ _ _ glad _|songs of|praise,||
w: loud ap-|plause, of _|loud ap-|plause The|har- * * * * * mo- *|ny com-|plete,||
 z2"^["!f!"^]" F2 G2 F2 | E4 D4 | E8 |] %22
w: is with his|good- ness|crown’d.|
w: to sing glad|songs of|praise.|
w: the har- mo-|ny com-|plete.|
V:3
 e4 B3 B | B4 e4 | (A2 B2 c2) B2 | B4 z2 e2 | (dedc B2) d2 | (cdcB =A2) c2 | B2 d2 B2 B2 | B4 =A4 | %8
w: For faith- ful|is the|word _ _ of|God, His|works _ _ _ _ with|truth _ _ _ _ a-|bound, his works with|truth a-|
w: Let all the|just to|God _ _ with|joy Their|cheer- * * * * ful|voi- * * * * ces|raise, their cheer- ful|voi- ces|
w: Let harps, and|psal- te-|ries, _ _ and|lutes In|joy- * * * * ful|con- * * * * cert|meet, in joy- ful|con- cert|
 B8 | z8 | c4 c2 B2 | A4 B4 | B4 (d2 e2) | (f2 d2) c4 | d4 z4 | z8 | z8 | z8 | z8 | %19
w: bound;||He jus- tice|loves, and|all, and _|all _ the|earth|||||
w: raise,||For well the|right- eous,|right- eous _|it _ be-|comes|||||
w: meet,||And new- made|songs of|loud, of _|loud _ ap-|plause|||||
 z2!f! A2 B2 c2 | B4 A4 | G8 |] %22
w: Is with his|good- ness|crown’d.|
w: To sing glad|songs of|praise.|
w: The har- mo-|ny com-|plete.|
V:4
 E,4"^6" D,3 D, | E,4"^6" G,4 | (A,2"^6" G,2 F,2) B,2 | E,4 z4 | z8 | z4 z2"^§" F,2 | %6
w: For faith- ful|is the|word _ _ of|God,||His|
w: Let all the|just to|God _ _ with|joy||Their|
w: Let harps, and|psal- te-|ries, _ _ and|lutes||In|
"^Notes: The original order of staves is Tenor - [Alto] - Air - [Bass], with the air and bass bracketed together. The alto part isgiven in the source in the treble clef, at the upper octave. The part shown in the present edition as the alto part for thephrase from beat 3 of bar 15 through to bar 18 is printed on the tenor stave in the source and marked 'Treble PIA' - this hasbeen moved to the alto part in the present edition without transposing by an octave. The first verse only of Watts’ ’There isa land of pure delight’ (i.e. Hymn 66, Book 2) text is underlaid in the source: in the present edition, four verses of thealternative text suggested in the source (Psalm 33 New Version) have been substituted editorially." B,6 E,2 | %7
w: works with|
w: cheer- ful|
w: joy- ful|
"^64" F,4"^7§" F,4 | B,,8 | z8 | z8 | z8 | F,4"^64" F,2 E,2 |"^6" D,2 B,,2"^§" F,2 F,2 | B,,4 z4 | %15
w: truth a-|bound;||||He jus- tice|loves, and all the|earth|
w: voi- ces|raise,||||For well the|right- eous it be-|comes|
w: con- cert|meet,||||And new- made|songs of loud ap-|plause|
 z8 | z8 | z8 | z4 z2"^["!f!"^]" E,2 | (A,4"^6" G,2)"^6" A,2 |"^64" B,4"^75" B,,4 | E,8 |] %22
w: |||Is|with _ his|good- ness|crown’d.|
w: |||To|sing _ glad|songs of|praise.|
w: |||The|har- * mo-|ny com-|plete.|

